optimized/24/outline/presentation-chart-bar.svg

<svg xmlns="http://www.w3.org/2000/svg" fill="none" viewBox="0 0 24 24" stroke-width="1.5" stroke="currentColor" aria-hidden="true">
  <path stroke-linecap="round" stroke-linejoin="round" d="M3.75 3v11.25A2.25 2.25 0 006 16.5h2.25M3.75 3h-1.5m1.5 0h16.5m0 0h1.5m-1.5 0v11.25A2.25 2.25 0 0118 16.5h-2.25m-7.5 0h7.5m-7.5 0l-1 3m8.5-3l1 3m0 0l.5 1.5m-.5-1.5h-9.5m0 0l-.5 1.5M9 11.25v1.5M12 9v3.75m3-6v6"/>
</svg>

<svg xmlns="http://www.w3.org/2000/svg" fill="none" viewBox="0 0 24 24">
  <path stroke-linecap="round" stroke-linejoin="round" d="M3.75 3V14.25C3.75 15.4926 4.75736 16.5 6 16.5H8.25M3.75 3H2.25M3.75 3H20.25M20.25 3H21.75M20.25 3V14.25C20.25 15.4926 19.2426 16.5 18 16.5H15.75M8.25 16.5H15.75M8.25 16.5L7.25 19.5M15.75 16.5L16.75 19.5M16.75 19.5L17.25 21M16.75 19.5H7.25M7.25 19.5L6.75 21M9 11.25V12.75M12 9V12.75M15 6.75V12.75"/>
</svg>
